X: 3
T: Michael Russell's
R: slide
M: 12/8
L: 1/8
K: Dmaj
|: dcB |A2 A A2 A ABA F2 E | DFA B2 A B2 A F2 A |
dcd a2 g f2 d B2 A | BdA BAB d3 :|
|: d2 A |dcd a2 g f2 d B2 A | BdA BdA B2 A F2 A |
dcd a2 g f2 d B2 A | BdA BAB d3 :|


Tune 958	Setting 29258

